assets/Brain/Flat/brain_flat.svg

<svg xmlns="http://www.w3.org/2000/svg" width="32" height="32" fill="none"><path fill="#FF6DC6" d="M30.893 15c-.849-7.317-7.059-13-14.604-13h-1.232C7.293 2 1 8.293 1 16.057A4.943 4.943 0 0 0 5.943 21h2.082a5.499 5.499 0 0 0 5.475 5H24a7 7 0 0 0 7-7v-2.289c0-.58-.042-1.149-.107-1.711Z"/><path fill="#F70A8D" d="M25 25.982v3.604a.75.75 0 0 1-1.28.53L19.604 26 25 25.982ZM10.178 7.536a.285.285 0 0 0 .199-.249c.073-.87.131-1.743.123-2.628-.279.754-.5 1.518-.708 2.284a8.13 8.13 0 0 0-4.843 2.728C3.667 11.148 2.932 13.106 3.055 15c.529-1.808 1.396-3.402 2.61-4.685a10.365 10.365 0 0 1 4.457-2.762l.056-.017Zm9.504-2.377c-.27-.565-.747-1.025-1.31-1.337-.562-.32-1.22-.473-1.872-.481-.652.01-1.309.163-1.871.483-.562.311-1.04.771-1.311 1.335 1.109-.543 2.123-.825 3.182-.818 1.059-.005 2.07.276 3.182.818Zm-8.627 9.939a4.94 4.94 0 0 0-.879.379 2.296 2.296 0 0 0-.043-.274 2.507 2.507 0 0 0-.658-1.177c-.641-.644-1.677-.935-2.475-.526.775.402 1.301.759 1.768 1.232.319.316.584.664.847 1.091-.25.177-.492.367-.711.581-.595.606-1.061 1.345-1.308 2.15-.253.8-.304 1.659-.096 2.446.402-1.562 1.081-2.866 2.11-3.89 1.021-1.031 2.328-1.71 3.89-2.11-.787-.206-1.646-.155-2.445.098Zm11.987 4.44c-.42.077-.979-.002-1.531-.01l-1.639-.028c-.731.005-1.463.025-2.194.055.507-.553.715-1.413.322-2.055-.403.645-.705 1.039-1.086 1.414-.263.265-.54.494-.901.746-.898.075-1.796.177-2.694.34 2.185.396 4.369.485 6.554.5l.356-.006c.259.193.478.381.686.592.379.376.681.77 1.086 1.414.209-.329.248-.73.17-1.106-.065-.347-.25-.661-.485-.929l.646-.028c.262-.002.624-.041.911-.146 1.231-.37 1.995-1.686 1.759-2.79-.21 1.097-1.045 1.884-1.96 2.037Zm6.323-2.675c-.271-.866-.774-1.659-1.416-2.312-.653-.641-1.447-1.144-2.313-1.415a5.16 5.16 0 0 0-1.635-.245c.615-.642 1.1-1.413 1.363-2.255.279-.86.342-1.783.136-2.636-.4 1.693-1.133 3.129-2.257 4.243-1.116 1.123-2.55 1.854-4.243 2.257.853.208 1.777.145 2.637-.135.747-.234 1.434-.648 2.03-1.167 1.401.425 2.615 1.088 3.577 2.058 1.123 1.116 1.854 2.55 2.257 4.243.207-.852.144-1.776-.136-2.636Z"/></svg>

<svg width="32" height="32" viewBox="0 0 32 32" fill="none" xmlns="http://www.w3.org/2000/svg">
<path d="M30.893 15C30.044 7.683 23.834 2 16.289 2H15.057C7.293 2 1 8.293 1 16.057C1 18.787 3.213 21 5.943 21H8.025C8.278 23.803 10.631 26 13.5 26H24C27.17 26 29.845 23.891 30.706 21C30.895 20.366 31 19.695 31 19V16.711C31 16.131 30.958 15.562 30.893 15Z" fill="#FF6DC6"/>
<path d="M25 25.982V29.586C25 30.254 24.192 30.589 23.72 30.116L19.604 26L25 25.982Z" fill="#F70A8D"/>
<path d="M10.178 7.536C10.285 7.503 10.367 7.407 10.377 7.287C10.45 6.417 10.508 5.544 10.5 4.659C10.221 5.413 10 6.177 9.79203 6.943C7.93903 7.238 6.17903 8.228 4.94903 9.671C3.66703 11.148 2.93203 13.106 3.05503 15C3.58403 13.192 4.45103 11.598 5.66503 10.315C6.87703 9.036 8.40603 8.087 10.122 7.553L10.178 7.536ZM19.682 5.159C19.412 4.594 18.935 4.134 18.372 3.822C17.81 3.502 17.152 3.349 16.5 3.341C15.848 3.351 15.191 3.504 14.629 3.824C14.067 4.135 13.589 4.595 13.318 5.159C14.427 4.616 15.441 4.334 16.5 4.341C17.559 4.336 18.57 4.617 19.682 5.159ZM11.055 15.098C10.75 15.192 10.459 15.325 10.176 15.477C10.166 15.385 10.154 15.293 10.133 15.203C10.035 14.761 9.79203 14.355 9.47503 14.026C8.83403 13.382 7.79803 13.091 7.00003 13.5C7.77503 13.902 8.30103 14.259 8.76803 14.732C9.08703 15.048 9.35203 15.396 9.61503 15.823C9.36503 16 9.12303 16.19 8.90403 16.404C8.30903 17.01 7.84303 17.749 7.59603 18.554C7.34303 19.354 7.29203 20.213 7.50003 21C7.90203 19.438 8.58103 18.134 9.61003 17.11C10.631 16.079 11.938 15.4 13.5 15C12.713 14.794 11.854 14.845 11.055 15.098ZM23.042 19.538C22.622 19.615 22.063 19.536 21.511 19.528L19.872 19.5C19.141 19.505 18.409 19.525 17.678 19.555C18.185 19.002 18.393 18.142 18 17.5C17.597 18.145 17.295 18.539 16.914 18.914C16.651 19.179 16.374 19.408 16.013 19.66C15.115 19.735 14.217 19.837 13.319 20C15.504 20.396 17.688 20.485 19.873 20.5L20.229 20.494C20.488 20.687 20.707 20.875 20.915 21.086C21.294 21.462 21.596 21.856 22.001 22.5C22.21 22.171 22.249 21.77 22.171 21.394C22.106 21.047 21.921 20.733 21.686 20.465L22.332 20.437C22.594 20.435 22.956 20.396 23.243 20.291C24.474 19.921 25.238 18.605 25.002 17.501C24.792 18.598 23.957 19.385 23.042 19.538ZM29.365 16.863C29.094 15.997 28.591 15.204 27.949 14.551C27.296 13.91 26.502 13.407 25.636 13.136C25.105 12.964 24.55 12.886 24.001 12.891C24.616 12.249 25.101 11.478 25.364 10.636C25.643 9.776 25.706 8.853 25.5 8C25.1 9.693 24.367 11.129 23.243 12.243C22.127 13.366 20.693 14.097 19 14.5C19.853 14.708 20.777 14.645 21.637 14.365C22.384 14.131 23.071 13.717 23.667 13.198C25.068 13.623 26.282 14.286 27.244 15.256C28.367 16.372 29.098 17.806 29.501 19.499C29.708 18.647 29.645 17.723 29.365 16.863Z" fill="#F70A8D"/>
</svg>
